X: 1
T: Gianna
C: by David A. Kaynor, 2019
R: reel
S: https://natunelist.net/gianna/ 2021-6-7
B: David A. Kaynor "Living Music and Dance" 2021
Z: 2021 John Chambers <jc:trillian.mit.edu>
M: 4/4
L: 1/8
K: G
|: DC |\
"G" B,D G2 G2 DC | B,D G2 G2 AB | "C"c3 A "Am"BGAG | "D"FDED D2 DC |
"G"B,D G2 G2 DC | B,D G2 G2 AB | "C"c3 A "Am"BGAG | "D"DGGF "G"G2 :|
|: ef |\
"G"g3 a g2 Bc | dgag g2 fg | "Am"a3 b aeag | fded "D"d2 ef |
"G"g3 a g2 Bc | dgag "Em"g2 AB | "C"c3 A "Am"BGAG | "D" DGGF "G" G2 :|
